src/img/our-team.svg

<svg width="29" height="29" viewBox="0 0 29 29" fill="none" xmlns="http://www.w3.org/2000/svg">
<g clip-path="url(#clip0)">
<path d="M14.5 9.35478C16.3054 9.35478 17.7742 7.88601 17.7742 6.08059C17.7742 4.27517 16.3054 2.8064 14.5 2.8064C12.6946 2.8064 11.2258 4.27517 11.2258 6.08059C11.2258 7.88601 12.6946 9.35478 14.5 9.35478ZM14.5 3.74188C15.7895 3.74188 16.8387 4.7911 16.8387 6.08059C16.8387 7.20975 16.0336 8.15459 14.9677 8.37202V6.54833H14.0322V8.37202C12.9663 8.15459 12.1613 7.2102 12.1613 6.08059C12.1613 4.7911 13.2105 3.74188 14.5 3.74188Z" fill="#E3B873"/>
<path d="M14.0322 5.14523C14.0322 4.88691 14.2416 4.67749 14.4999 4.67749C14.7583 4.67749 14.9677 4.88691 14.9677 5.14523C14.9677 5.40356 14.7583 5.61297 14.4999 5.61297C14.2416 5.61297 14.0322 5.40356 14.0322 5.14523Z" fill="#E3B873"/>
<path d="M14.5011 6.69775L14.5011 8.44864" stroke="#E3B873" stroke-linecap="round"/>
<path d="M27.1683 22.1373L24.7903 21.6089V20.9253C25.6374 20.3328 26.1935 19.3519 26.1935 18.2424V17.3069C26.1935 15.6609 24.9714 14.2983 23.3871 14.0702V11.8452L19.0646 10.1158L19.7322 9.44848L19.0641 8.44653C19.1989 8.18685 19.3113 7.91598 19.3996 7.63644L20.5806 7.3996V4.76169L19.4001 4.52531C19.3117 4.24576 19.1989 3.97489 19.0646 3.71521L19.7326 2.71327L17.8678 0.848467L16.8659 1.51651C16.6062 1.38176 16.3353 1.26939 16.0558 1.181L15.8189 0H13.1811L12.9447 1.18055C12.6651 1.26893 12.3942 1.38176 12.1346 1.51605L11.1326 0.848011L9.26782 2.71281L9.93586 3.71476C9.80111 3.97444 9.68874 4.24531 9.60036 4.52486L8.41935 4.76169V7.3996L9.5999 7.63598C9.68829 7.91553 9.80111 8.1864 9.9354 8.44608L9.26737 9.44802L9.93495 10.1154L5.6129 11.8447V14.0697C4.02856 14.2979 2.80645 15.6604 2.80645 17.3065V18.2419C2.80645 19.3519 3.36258 20.3328 4.20968 20.9248V21.6082L1.83168 22.1369C0.753001 22.3767 0 23.3156 0 24.4199V29H29V24.4199C29 23.3156 28.247 22.3767 27.1683 22.1373ZM23.8548 21.8553C23.7388 22.0343 23.4166 22.4516 22.9194 22.4516C22.4222 22.4516 22.0999 22.0339 21.9839 21.8553V21.3786C22.2803 21.467 22.5944 21.5161 22.9194 21.5161C23.2444 21.5161 23.5584 21.467 23.8548 21.3782V21.8553ZM25.2581 17.3065V18.2419C25.2581 19.5314 24.2088 20.5806 22.9194 20.5806C21.6299 20.5806 20.5806 19.5314 20.5806 18.2419V17.3065C20.5806 16.017 21.6299 14.9677 22.9194 14.9677C24.2088 14.9677 25.2581 16.017 25.2581 17.3065ZM22.4516 12.4778V14.0697C20.8673 14.2979 19.6452 15.6604 19.6452 17.3065V18.2419C19.6452 19.3519 20.2013 20.3328 21.0484 20.9248V21.6082L18.7097 22.128L16.371 21.6082V20.9248C17.2181 20.3324 17.7742 19.3515 17.7742 18.2419V17.3065C17.7742 15.6604 16.5521 14.2979 14.9677 14.0697V12.1613H15.8189L16.0553 10.9807C16.3349 10.8924 16.6058 10.7795 16.8654 10.6452L17.8674 11.3133L18.3449 10.8357L22.4516 12.4778ZM19.6452 28.0645H9.35484V24.4199C9.35484 23.7571 9.80659 23.1939 10.4536 23.0498L12.8825 22.5101C13.15 22.8645 13.6819 23.3871 14.5 23.3871C15.3181 23.3871 15.85 22.8645 16.1175 22.5105L18.5464 23.0502C19.1934 23.1939 19.6452 23.7575 19.6452 24.4199V28.0645ZM14.5 14.9677C15.7895 14.9677 16.8387 16.017 16.8387 17.3065V18.2419C16.8387 19.5314 15.7895 20.5806 14.5 20.5806C13.2105 20.5806 12.1613 19.5314 12.1613 18.2419V17.3065C12.1613 16.017 13.2105 14.9677 14.5 14.9677ZM14.5 21.5161C14.825 21.5161 15.139 21.467 15.4355 21.3782V21.8548C15.3195 22.0343 14.9972 22.4516 14.5 22.4516C14.0028 22.4516 13.6805 22.0339 13.5645 21.8553V21.3786C13.861 21.467 14.175 21.5161 14.5 21.5161ZM9.35484 6.63266V5.52863L10.352 5.32901L10.4246 5.04376C10.5242 4.65161 10.679 4.27797 10.8844 3.93287L11.0353 3.67936L10.471 2.83272L11.2516 2.05208L12.0983 2.61666L12.3518 2.46547C12.6969 2.26014 13.0705 2.10484 13.4627 2.00572L13.7479 1.93309L13.948 0.935484H15.052L15.2516 1.93263L15.5369 2.00526C15.929 2.10484 16.3027 2.25969 16.6478 2.46501L16.9013 2.61597L17.7479 2.05162L18.5286 2.83226L17.964 3.6789L18.1152 3.93241C18.3205 4.27751 18.4758 4.65115 18.5749 5.0433L18.6476 5.32856L19.6452 5.52863V6.63266L18.648 6.83228L18.5754 7.11753C18.4758 7.50968 18.321 7.88332 18.1156 8.22842L17.9647 8.48193L18.529 9.32857L17.7484 10.1092L16.9017 9.54463L16.6482 9.69582C16.3031 9.90115 15.9295 10.0565 15.5373 10.1556L15.2521 10.2282L15.052 11.2258H13.948L13.7484 10.2287L13.4631 10.156C13.071 10.0565 12.6973 9.9016 12.3522 9.69628L12.0987 9.54532L11.2521 10.1097L10.4714 9.32903L11.036 8.48239L10.8848 8.22888C10.6795 7.88378 10.5242 7.51014 10.4251 7.11799L10.3524 6.83273L9.35484 6.63266ZM10.6551 10.8353L11.1326 11.3128L12.1346 10.6448C12.3942 10.7795 12.6651 10.8919 12.9447 10.9803L13.1811 12.1613H14.0323V14.0697C12.4479 14.2979 11.2258 15.6604 11.2258 17.3065V18.2419C11.2258 19.3519 11.7819 20.3328 12.629 20.9248V21.6082L10.2903 22.128L7.95161 21.6082V20.9248C8.79871 20.3324 9.35484 19.3515 9.35484 18.2419V17.3065C9.35484 15.6604 8.13273 14.2979 6.54839 14.0697V12.4778L10.6551 10.8353ZM3.74194 18.2419V17.3065C3.74194 16.017 4.79116 14.9677 6.08065 14.9677C7.37013 14.9677 8.41935 16.017 8.41935 17.3065V18.2419C8.41935 19.5314 7.37013 20.5806 6.08065 20.5806C4.79116 20.5806 3.74194 19.5314 3.74194 18.2419ZM6.08065 21.5161C6.40564 21.5161 6.71968 21.467 7.01613 21.3782V21.8548C6.90011 22.0343 6.57785 22.4516 6.08065 22.4516C5.58253 22.4516 5.25981 22.0325 5.14516 21.8553V21.3782C5.44161 21.467 5.75565 21.5161 6.08065 21.5161ZM0.935484 24.4199C0.935484 23.7571 1.38724 23.1939 2.03427 23.0498L4.46319 22.5101C4.73063 22.8645 5.26255 23.3871 6.08065 23.3871C6.89874 23.3871 7.43066 22.8645 7.6981 22.5105L9.06387 22.8141C8.6635 23.2354 8.41935 23.7987 8.41935 24.4199V28.0645H0.935484V24.4199ZM28.0645 28.0645H20.5806V24.4199C20.5806 23.7987 20.3365 23.235 19.9361 22.8136L21.3019 22.5101C21.5693 22.8645 22.1013 23.3871 22.9194 23.3871C23.7374 23.3871 24.2694 22.8645 24.5368 22.5105L26.9657 23.0502C27.6128 23.1939 28.0645 23.7575 28.0645 24.4199V28.0645Z" fill="#E3B873"/>
</g>
<defs>
<clipPath id="clip0">
<rect width="29" height="29" fill="white"/>
</clipPath>
</defs>
</svg>

<svg width="29" height="29" fill="none" xmlns="http://www.w3.org/2000/svg"><g clip-path="url(#clip0)"><path d="M14.5 9.355a3.278 3.278 0 0 0 3.274-3.274A3.278 3.278 0 0 0 14.5 2.806a3.278 3.278 0 0 0-3.274 3.275A3.278 3.278 0 0 0 14.5 9.355zm0-5.613c1.29 0 2.339 1.05 2.339 2.339a2.342 2.342 0 0 1-1.871 2.291V6.548h-.936v1.824a2.343 2.343 0 0 1-1.87-2.291c0-1.29 1.048-2.34 2.338-2.34z" fill="#E3B873"/><path d="M14.032 5.145a.468.468 0 1 1 .936 0 .468.468 0 0 1-.936 0z" fill="#E3B873"/><path d="M14.501 6.698v1.75" stroke="#E3B873" stroke-linecap="round"/><path d="M27.168 22.137l-2.378-.528v-.684a3.27 3.27 0 0 0 1.404-2.683v-.935a3.276 3.276 0 0 0-2.807-3.237v-2.225l-4.322-1.73.667-.667-.668-1.001a5.16 5.16 0 0 0 .336-.81l1.18-.237V4.762l-1.18-.237a5.134 5.134 0 0 0-.335-.81l.668-1.002L17.868.848l-1.002.669a5.093 5.093 0 0 0-.81-.336L15.819 0H13.18l-.236 1.18c-.28.089-.55.202-.81.336L11.133.848 9.268 2.713l.668 1.002a5.09 5.09 0 0 0-.336.81l-1.18.237V7.4l1.18.236c.088.28.201.55.335.81l-.668 1.002.668.667-4.322 1.73v2.225a3.276 3.276 0 0 0-2.807 3.236v.936c0 1.11.557 2.09 1.404 2.683v.683l-2.378.529A2.325 2.325 0 0 0 0 24.42V29h29v-4.58a2.324 2.324 0 0 0-1.832-2.283zm-3.313-.282c-.116.18-.438.597-.936.597-.497 0-.82-.418-.935-.597v-.476a3.27 3.27 0 0 0 1.87 0v.476zm1.403-4.549v.936c0 1.29-1.05 2.339-2.339 2.339a2.342 2.342 0 0 1-2.338-2.34v-.934c0-1.29 1.049-2.34 2.338-2.34 1.29 0 2.34 1.05 2.34 2.34zm-2.806-4.828v1.592a3.276 3.276 0 0 0-2.807 3.236v.936c0 1.11.556 2.09 1.403 2.683v.683l-2.338.52-2.339-.52v-.683a3.27 3.27 0 0 0 1.403-2.683v-.936a3.276 3.276 0 0 0-2.806-3.236v-1.91h.85l.237-1.18c.28-.089.55-.201.81-.336l1.002.668.478-.477 4.107 1.642zm-2.807 15.586H9.355V24.42c0-.663.452-1.226 1.099-1.37l2.428-.54c.268.354.8.877 1.618.877.818 0 1.35-.523 1.617-.877l2.43.54a1.395 1.395 0 0 1 1.098 1.37v3.644zM14.5 14.968a2.341 2.341 0 0 1 2.339 2.338v.936c0 1.29-1.05 2.339-2.339 2.339a2.341 2.341 0 0 1-2.339-2.34v-.934c0-1.29 1.05-2.34 2.339-2.34zm0 6.548c.325 0 .639-.049.935-.138v.477c-.116.18-.438.597-.935.597-.497 0-.82-.418-.935-.597v-.476c.296.088.61.137.935.137zM9.355 6.633V5.529l.997-.2.073-.285c.1-.392.254-.766.46-1.111l.15-.254-.564-.846.78-.78.847.564.254-.152a4.17 4.17 0 0 1 1.11-.46l.286-.072.2-.998h1.104l.2.998.285.072c.392.1.766.255 1.11.46l.254.151.847-.564.78.78-.564.847.151.253c.206.346.36.72.46 1.111l.073.286.997.2v1.104l-.997.2-.073.285c-.1.392-.254.765-.46 1.11l-.15.254.564.847-.78.78-.847-.564-.254.15a4.17 4.17 0 0 1-1.11.46l-.286.073-.2.998h-1.104l-.2-.997-.285-.073a4.184 4.184 0 0 1-1.11-.46l-.254-.15-.847.564-.78-.781.564-.847-.151-.253a4.17 4.17 0 0 1-.46-1.111l-.073-.285-.997-.2zm1.3 4.202l.478.478 1.002-.668c.26.135.53.247.81.335l.236 1.181h.851v1.909a3.276 3.276 0 0 0-2.806 3.236v.936c0 1.11.556 2.09 1.403 2.683v.683l-2.339.52-2.338-.52v-.683a3.27 3.27 0 0 0 1.403-2.683v-.936a3.276 3.276 0 0 0-2.807-3.236v-1.592l4.107-1.643zm-6.913 7.407v-.936a2.342 2.342 0 0 1 2.339-2.338 2.34 2.34 0 0 1 2.338 2.338v.936a2.341 2.341 0 0 1-2.338 2.339 2.341 2.341 0 0 1-2.34-2.34zm2.339 3.274c.325 0 .639-.049.935-.138v.477c-.116.18-.438.597-.935.597-.498 0-.821-.42-.936-.597v-.477c.297.089.61.138.936.138zM.935 24.42c0-.663.452-1.226 1.1-1.37l2.428-.54c.268.354.8.877 1.618.877.818 0 1.35-.523 1.617-.877l1.366.304a2.32 2.32 0 0 0-.645 1.606v3.644H.935V24.42zm27.13 3.644H20.58V24.42c0-.621-.244-1.185-.645-1.606l1.366-.304c.267.354.8.877 1.617.877.818 0 1.35-.523 1.618-.877l2.429.54a1.395 1.395 0 0 1 1.098 1.37v3.644z" fill="#E3B873"/></g><defs><clipPath id="clip0"><path fill="#fff" d="M0 0h29v29H0z"/></clipPath></defs></svg>
